X:1
T:The Old, Old Way
T:Charles Bentley
T:The Old, Old Way
T:Public Domain
T:Public Domain
T:Public Domain
C:Charles Bentley
Z:Public Domain
%%score ( 1 2 ) ( 3 4 )
L:1/8
M:4/4
K:Eb
V:1 treble 
V:2 treble 
V:3 bass 
V:4 bass 
V:1
 E[EF] | [EG][EG][EG][EG] [EG]2 [EG][FA] | [Ac][GB][GB][EG] [GB]2 [FA][EG] | %3
w: 1.~Is your|of glo- ry bright? Are you walk-|ing in the light, Ev- er shin-|
w: 2.~Have you|en up the cross? Do you count|the world but dross, For the splen-|
w: 3.~Tho’ your|may all u- nite, Will you bat-|tle for the right, And the won-|
w: 4.~O the|of those who trust In the on-|ly wise and just, And are look-|
 [DF][DF][DF][EG] [FA]2 [DB]2 | [EG]6 [EG][FA] | [GB][GB][GB][GB] [GB]2 [^F=A][GB] | %6
w: ing from the Sav- ior’s throne?|Have you gone|to Him for rest, When your heart|
w: dor you in Christ may see?|To His quest-|ion, “Who will go,” And His love|
w: ders of the Lord pro- claim?|Will you stand|with cour- age brave And the roy-|
w: ing for a home a- bove;|If your lot|with them is cast You will an-|
 [Ac][Ae][Ae][Ac] [GB]2 E[EF] | [EG][GB][GB][Ac] [EG]2 [DF]2 | E6 ||"^Refrain" [GB][Ge] | %10
w: was sore op- pressed? Are you trust-|in His arm a- lone? *|||
w: to sin- ners show, Will you an-|“Here am I, send me”? Are|you|ing in|
w: al ban- ner wave, Shout- ing vic-|thro’ the Mas- ter’s name? *|||
w: chor safe at last In the ha-|of e- ter- nal love. *|||
 [Ad][FA][FA][FA] [FA]2 [Ac]>[Ad] | [Ac][GB][GB][EG] [GB]2 [GB][Ge] | %12
w: ||
w: the light, In the bless- èd, bless-|èd light? Is it shin- ing in|
w: ||
w: ||
 [Fd][Fd][Fd][Ge] [Fd]2 [Ec]2 | [DB]6 [EG][FA] | [GB][GB][GB][GB] [GB]2 [^F=A][GB] | %15
w: |||
w: your soul to- day? With a|firm a- bid-|ing faith that will tri- umph o-|
w: |||
w: |||
 [Ac][Ae][Ae][Ac] [GB]2 E[EF] | [EG][GB][GB][Ac] [EG]2 [DF]2 | E6 |] %18
w: |||
w: ver death, Are you walk- ing in|old, old way? * * *||
w: |||
w: |||
V:2
 E x | x8 | x8 | x8 | x8 | x8 | x6 E x | x8 | E6 || x2 | x8 | x8 | x8 | x8 | x8 | x6 E x | x8 | %17
w: hope||||||ing|||||||||||
w: tak-||||||swer||walk-|||||||the||
w: foes||||||t’ry|||||||||||
w: bliss||||||ven|||||||||||
 E6 |] %18
w: |
w: |
w: |
w: |
V:3
 [E,G,][E,A,] | [E,B,][E,B,][E,B,][E,B,] [E,B,]2 [E,B,][E,B,] | %2
 [E,E][E,E][E,E][E,B,] [E,E]2 [E,B,][E,B,] | [B,,B,][B,,B,][B,,B,][B,,B,] [B,,B,]2 [B,,B,]2 | %4
 [E,B,]6 [E,B,][E,B,] | [E,E][E,E][E,E][E,E] [E,E]2 [E,E][E,E] | %6
 [A,E][A,C][A,C][A,E] [E,E]2 [G,B,][A,C] | B,[B,E][B,E][B,E] B,2 [B,,A,]2 | [E,G,]6 || %9
 [E,B,][E,B,] | [B,,B,][B,,D][B,,D][B,,D] [B,,D]2 [B,,D]>[B,,D] | %11
 [E,E][E,E][E,E][E,B,] [E,E]2 [E,B,][E,B,] | [F,B,][F,B,][F,B,][F,B,] [F,B,]2 [F,=A,]2 | %13
 (B,2 F,2 B,2) [E,B,][E,B,] | [E,E][E,E][E,E][E,E] [E,E]2 [E,E][E,E] | %15
 [A,E][A,C][A,C][A,E] [E,E]2 [G,B,][A,C] | B,[B,E][B,E][B,E] B,2 [B,,A,]2 | [E,G,]6 |] %18
V:4
 x2 | x8 | x8 | x8 | x8 | x8 | x8 | B, x2 B,2 x3 | x6 || x2 | x8 | x8 | x8 | B,,6 x2 | x8 | x8 | %16
 B, x2 B,2 x3 | x6 |] %18

